Numix-Circle/48x48/apps/Scrivener.svg

<svg xmlns="http://www.w3.org/2000/svg" xmlns:xlink="http://www.w3.org/1999/xlink" viewBox="0 0 48 48"><defs><clipPath><g transform="translate(0,-1004.3622)"><path d="m -24 13 c 0 1.105 -0.672 2 -1.5 2 -0.828 0 -1.5 -0.895 -1.5 -2 0 -1.105 0.672 -2 1.5 -2 0.828 0 1.5 0.895 1.5 2 z" transform="matrix(15.333333,0,0,11.5,414.99999,878.8622)" fill="#1890d0"/></g></clipPath><clipPath><g transform="translate(0,-1004.3622)"><path d="m -24 13 c 0 1.105 -0.672 2 -1.5 2 -0.828 0 -1.5 -0.895 -1.5 -2 0 -1.105 0.672 -2 1.5 -2 0.828 0 1.5 0.895 1.5 2 z" transform="matrix(15.333333,0,0,11.5,414.99999,878.8622)" fill="#1890d0"/></g></clipPath><linearGradient id="linearGradient3101" gradientUnits="userSpaceOnUse" gradientTransform="matrix(0,-1,1,0,-1.5e-6,47.999998)" x1="1" x2="47"><stop stop-color="#e4e4e4" stop-opacity="1"/><stop offset="1" stop-color="#eee" stop-opacity="1"/></linearGradient></defs><g><path d="m 36.31 5 c 5.859 4.062 9.688 10.831 9.688 18.5 c 0 12.426 -10.07 22.5 -22.5 22.5 c -7.669 0 -14.438 -3.828 -18.5 -9.688 c 1.037 1.822 2.306 3.499 3.781 4.969 c 4.085 3.712 9.514 5.969 15.469 5.969 c 12.703 0 23 -10.298 23 -23 c 0 -5.954 -2.256 -11.384 -5.969 -15.469 c -1.469 -1.475 -3.147 -2.744 -4.969 -3.781 z m 4.969 3.781 c 3.854 4.113 6.219 9.637 6.219 15.719 c 0 12.703 -10.297 23 -23 23 c -6.081 0 -11.606 -2.364 -15.719 -6.219 c 4.16 4.144 9.883 6.719 16.219 6.719 c 12.703 0 23 -10.298 23 -23 c 0 -6.335 -2.575 -12.06 -6.719 -16.219 z" opacity="0.05"/><path d="m 41.28 8.781 c 3.712 4.085 5.969 9.514 5.969 15.469 c 0 12.703 -10.297 23 -23 23 c -5.954 0 -11.384 -2.256 -15.469 -5.969 c 4.113 3.854 9.637 6.219 15.719 6.219 c 12.703 0 23 -10.298 23 -23 c 0 -6.081 -2.364 -11.606 -6.219 -15.719 z" opacity="0.1"/><path d="m 31.25 2.375 c 8.615 3.154 14.75 11.417 14.75 21.13 c 0 12.426 -10.07 22.5 -22.5 22.5 c -9.708 0 -17.971 -6.135 -21.12 -14.75 a 23 23 0 0 0 44.875 -7 a 23 23 0 0 0 -16 -21.875 z" opacity="0.2"/></g><path d="m 24 1 l 0 11 l 4 0 l 5 4 l 0 3 l -4 0 l 0 -1 l -2 -2 l -3 0 l 0 6 l 5 0 l 4 4 l 0 6 l -5 4 l -4 0 l 0 11 c 12.703 0 23 -10.297 23 -23 c 0 -12.703 -10.297 -23 -23 -23 z m 0 35 l 0 -4 l -2 0 l -2 -2 l 0 -1 l -5 0 l 0 3 l 5 4 l 4 0 z m 0 -4 l 3 0 l 2 -2 l 0 -2 l -2 -2 l -3 0 l 0 6 z m 0 -6 l 0 -4 l -2 0 l -3 -2 l 0 -2 l 3 -2 l 2 0 l 0 -4 l -4 0 l -5 4 l 0 6 l 5 4 l 4 0 z" fill="url(#linearGradient3101)" fill-opacity="1"/><path d="m 24 1 l 0 11 l 1 0 l 0 -10.969 c -0.331 -0.014 -0.666 -0.031 -1 -0.031 z m 0 11 l -4 0 l -5 4 l 0 6 l 1 0.813 l 0 -5.813 l 5 -4 l 3 0 l 0 -1 z m 1 4 l 0 1 l 3 0 l -1 -1 l -2 0 z m 0 1 l -1 0 l 0 5 l 1 0 l 0 -5 z m -1 5 l -2 0 l -2 -1.344 l 0 0.344 l 3 2 l 1 0 l 0 -1 z m 9 -5.813 l 0 2.813 l -3 0 l 0 1 l 4 0 l 0 -3 l -1 -0.813 z m -8 9.813 l 0 1 l 3 0 l -1 -1 l -2 0 z m 0 1 l -1 0 l 0 5 l 1 0 l 0 -5 z m -1 5 l -2 0 l 1 1 l 1 0 l 0 -1 z m 9 -6 l 0 6 l -5 4 l -3 0 l 0 1 l 4 0 l 5 -4 l 0 -6 l -1 -1 z m -8 11 l -1 0 l 0 10 c 0.334 0 0.669 -0.017 1 -0.031 l 0 -9.969 z m -10 -8 l 0 3 l 1 0.813 l 0 -2.813 l 4 0 l 0 -1 l -5 0 z" opacity="0.1" fill="#000" fill-rule="nonzero" stroke="none" fill-opacity="1"/><path d="m 24 1 c -12.703 0 -23 10.297 -23 23 c 0 12.703 10.297 23 23 23 l 0 -11 l -4 0 l -5 -4 l 0 -3 l 5 0 l 0 1 l 2 2 l 2 0 l 0 -6 l -4 0 l -5 -4 l 0 -6 l 5 -4 l 4 0 l 0 -11 z m 0 11 l 0 4 l 3 0 l 2 2 l 0 1 l 4 0 l 0 -3 l -5 -4 l -4 0 z m 0 4 l -2 0 l -3 2 l 0 2 l 3 2 l 2 0 l 0 -6 z m 0 6 l 0 4 l 3 0 l 2 2 l 0 2 l -2 2 l -3 0 l 0 4 l 4 0 l 5 -4 l 0 -6 l -4 -4 l -5 0 z" id="path53" fill="#4a4a4a" fill-rule="nonzero" stroke="none" fill-opacity="1"/><g><path d="m 40.03 7.531 c 3.712 4.084 5.969 9.514 5.969 15.469 0 12.703 -10.297 23 -23 23 c -5.954 0 -11.384 -2.256 -15.469 -5.969 4.178 4.291 10.01 6.969 16.469 6.969 c 12.703 0 23 -10.298 23 -23 0 -6.462 -2.677 -12.291 -6.969 -16.469 z" opacity="0.1"/></g><use xlink:href="#path53"/></svg>

<?xml version="1.0" encoding="UTF-8" standalone="no"?>
<svg
   xmlns:dc="http://purl.org/dc/elements/1.1/"
   xmlns:cc="http://creativecommons.org/ns#"
   xmlns:rdf="http://www.w3.org/1999/02/22-rdf-syntax-ns#"
   xmlns:svg="http://www.w3.org/2000/svg"
   xmlns="http://www.w3.org/2000/svg"
   xmlns:xlink="http://www.w3.org/1999/xlink"
   xmlns:sodipodi="http://sodipodi.sourceforge.net/DTD/sodipodi-0.dtd"
   xmlns:inkscape="http://www.inkscape.org/namespaces/inkscape"
   viewBox="0 0 48 48"
   id="svg2"
   version="1.1"
   inkscape:version="0.48.4 r9939"
   width="100%"
   height="100%"
   sodipodi:docname="Scrivener.svg">
  <metadata
     id="metadata61">
    <rdf:RDF>
      <cc:Work
         rdf:about="">
        <dc:format>image/svg+xml</dc:format>
        <dc:type
           rdf:resource="http://purl.org/dc/dcmitype/StillImage" />
      </cc:Work>
    </rdf:RDF>
  </metadata>
  <sodipodi:namedview
     pagecolor="#ffffff"
     bordercolor="#666666"
     borderopacity="1"
     objecttolerance="10"
     gridtolerance="10"
     guidetolerance="10"
     inkscape:pageopacity="0"
     inkscape:pageshadow="2"
     inkscape:window-width="1280"
     inkscape:window-height="960"
     id="namedview59"
     showgrid="false"
     inkscape:zoom="4.9166667"
     inkscape:cx="-36.305005"
     inkscape:cy="15.563033"
     inkscape:window-x="0"
     inkscape:window-y="0"
     inkscape:window-maximized="1"
     inkscape:current-layer="svg2" />
  <defs
     id="defs4">
    <linearGradient
       id="linearGradient3764"
       x1="1"
       x2="47"
       gradientUnits="userSpaceOnUse"
       gradientTransform="matrix(0,-1,1,0,-1.5e-6,47.999998)">
      <stop
         stop-color="#e4e4e4"
         stop-opacity="1"
         id="stop7" />
      <stop
         offset="1"
         stop-color="#eee"
         stop-opacity="1"
         id="stop9" />
    </linearGradient>
    <clipPath
       id="clipPath-738098810">
      <g
         transform="translate(0,-1004.3622)"
         id="g12">
        <path
           d="m -24 13 c 0 1.105 -0.672 2 -1.5 2 -0.828 0 -1.5 -0.895 -1.5 -2 0 -1.105 0.672 -2 1.5 -2 0.828 0 1.5 0.895 1.5 2 z"
           transform="matrix(15.333333,0,0,11.5,414.99999,878.8622)"
           fill="#1890d0"
           id="path14" />
      </g>
    </clipPath>
    <clipPath
       id="clipPath-745175241">
      <g
         transform="translate(0,-1004.3622)"
         id="g17">
        <path
           d="m -24 13 c 0 1.105 -0.672 2 -1.5 2 -0.828 0 -1.5 -0.895 -1.5 -2 0 -1.105 0.672 -2 1.5 -2 0.828 0 1.5 0.895 1.5 2 z"
           transform="matrix(15.333333,0,0,11.5,414.99999,878.8622)"
           fill="#1890d0"
           id="path19" />
      </g>
    </clipPath>
    <linearGradient
       inkscape:collect="always"
       xlink:href="#linearGradient3764"
       id="linearGradient3048"
       gradientUnits="userSpaceOnUse"
       gradientTransform="matrix(0,-1,1,0,-1.5e-6,47.999998)"
       x1="1"
       x2="47" />
    <linearGradient
       inkscape:collect="always"
       xlink:href="#linearGradient3764"
       id="linearGradient3051"
       gradientUnits="userSpaceOnUse"
       gradientTransform="matrix(0,-1,1,0,-1.5e-6,47.999998)"
       x1="1"
       x2="47" />
    <linearGradient
       inkscape:collect="always"
       xlink:href="#linearGradient3764"
       id="linearGradient3074"
       gradientUnits="userSpaceOnUse"
       gradientTransform="matrix(0,-1,1,0,-1.5e-6,47.999998)"
       x1="1"
       x2="47" />
    <linearGradient
       inkscape:collect="always"
       xlink:href="#linearGradient3764"
       id="linearGradient3078"
       gradientUnits="userSpaceOnUse"
       gradientTransform="matrix(0,-1,1,0,-1.5e-6,47.999998)"
       x1="1"
       x2="47" />
    <linearGradient
       inkscape:collect="always"
       xlink:href="#linearGradient3764"
       id="linearGradient3098"
       gradientUnits="userSpaceOnUse"
       gradientTransform="matrix(0,-1,1,0,-1.5e-6,47.999998)"
       x1="1"
       x2="47" />
    <linearGradient
       inkscape:collect="always"
       xlink:href="#linearGradient3764"
       id="linearGradient3101"
       gradientUnits="userSpaceOnUse"
       gradientTransform="matrix(0,-1,1,0,-1.5e-6,47.999998)"
       x1="1"
       x2="47" />
  </defs>
  <g
     id="g21">
    <path
       d="m 36.31 5 c 5.859 4.062 9.688 10.831 9.688 18.5 c 0 12.426 -10.07 22.5 -22.5 22.5 c -7.669 0 -14.438 -3.828 -18.5 -9.688 c 1.037 1.822 2.306 3.499 3.781 4.969 c 4.085 3.712 9.514 5.969 15.469 5.969 c 12.703 0 23 -10.298 23 -23 c 0 -5.954 -2.256 -11.384 -5.969 -15.469 c -1.469 -1.475 -3.147 -2.744 -4.969 -3.781 z m 4.969 3.781 c 3.854 4.113 6.219 9.637 6.219 15.719 c 0 12.703 -10.297 23 -23 23 c -6.081 0 -11.606 -2.364 -15.719 -6.219 c 4.16 4.144 9.883 6.719 16.219 6.719 c 12.703 0 23 -10.298 23 -23 c 0 -6.335 -2.575 -12.06 -6.719 -16.219 z"
       opacity="0.05"
       id="path23" />
    <path
       d="m 41.28 8.781 c 3.712 4.085 5.969 9.514 5.969 15.469 c 0 12.703 -10.297 23 -23 23 c -5.954 0 -11.384 -2.256 -15.469 -5.969 c 4.113 3.854 9.637 6.219 15.719 6.219 c 12.703 0 23 -10.298 23 -23 c 0 -6.081 -2.364 -11.606 -6.219 -15.719 z"
       opacity="0.1"
       id="path25" />
    <path
       d="m 31.25 2.375 c 8.615 3.154 14.75 11.417 14.75 21.13 c 0 12.426 -10.07 22.5 -22.5 22.5 c -9.708 0 -17.971 -6.135 -21.12 -14.75 a 23 23 0 0 0 44.875 -7 a 23 23 0 0 0 -16 -21.875 z"
       opacity="0.2"
       id="path27" />
  </g>
  <path
     style="fill:url(#linearGradient3101);fill-opacity:1"
     d="M 24 1 L 24 12 L 28 12 L 33 16 L 33 19 L 29 19 L 29 18 L 27 16 L 24 16 L 24 22 L 29 22 L 33 26 L 33 32 L 28 36 L 24 36 L 24 47 C 36.703 47 47 36.703 47 24 C 47 11.297 36.703 1 24 1 z M 24 36 L 24 32 L 22 32 L 20 30 L 20 29 L 15 29 L 15 32 L 20 36 L 24 36 z M 24 32 L 27 32 L 29 30 L 29 28 L 27 26 L 24 26 L 24 32 z M 24 26 L 24 22 L 22 22 L 19 20 L 19 18 L 22 16 L 24 16 L 24 12 L 20 12 L 15 16 L 15 22 L 20 26 L 24 26 z "
     id="path31" />
  <g
     id="g33" />
  <path
     style="opacity:0.1;fill:#000000;fill-opacity:1;fill-rule:nonzero;stroke:none"
     d="M 24 1 L 24 12 L 25 12 L 25 1.03125 C 24.669144 1.0171284 24.334333 1 24 1 z M 24 12 L 20 12 L 15 16 L 15 22 L 16 22.8125 L 16 17 L 21 13 L 24 13 L 24 12 z M 25 16 L 25 17 L 28 17 L 27 16 L 25 16 z M 25 17 L 24 17 L 24 22 L 25 22 L 25 17 z M 24 22 L 22 22 L 20 20.65625 L 20 21 L 23 23 L 24 23 L 24 22 z M 33 16.1875 L 33 19 L 30 19 L 30 20 L 34 20 L 34 17 L 33 16.1875 z M 25 26 L 25 27 L 28 27 L 27 26 L 25 26 z M 25 27 L 24 27 L 24 32 L 25 32 L 25 27 z M 24 32 L 22 32 L 23 33 L 24 33 L 24 32 z M 33 26 L 33 32 L 28 36 L 25 36 L 25 37 L 29 37 L 34 33 L 34 27 L 33 26 z M 25 37 L 24 37 L 24 47 C 24.334333 47 24.669144 46.982872 25 46.96875 L 25 37 z M 15 29 L 15 32 L 16 32.8125 L 16 30 L 20 30 L 20 29 L 15 29 z "
     id="path45" />
  <path
     style="fill:#4a4a4a;fill-opacity:1;fill-rule:nonzero;stroke:none"
     d="M 24 1 C 11.297 1 1 11.297 1 24 C 1 36.703 11.297 47 24 47 L 24 36 L 20 36 L 15 32 L 15 29 L 20 29 L 20 30 L 22 32 L 24 32 L 24 26 L 20 26 L 15 22 L 15 16 L 20 12 L 24 12 L 24 1 z M 24 12 L 24 16 L 27 16 L 29 18 L 29 19 L 33 19 L 33 16 L 28 12 L 24 12 z M 24 16 L 22 16 L 19 18 L 19 20 L 22 22 L 24 22 L 24 16 z M 24 22 L 24 26 L 27 26 L 29 28 L 29 30 L 27 32 L 24 32 L 24 36 L 28 36 L 33 32 L 33 26 L 29 22 L 24 22 z "
     id="path53" />
  <g
     id="g55">
    <path
       d="m 40.03 7.531 c 3.712 4.084 5.969 9.514 5.969 15.469 0 12.703 -10.297 23 -23 23 c -5.954 0 -11.384 -2.256 -15.469 -5.969 4.178 4.291 10.01 6.969 16.469 6.969 c 12.703 0 23 -10.298 23 -23 0 -6.462 -2.677 -12.291 -6.969 -16.469 z"
       opacity="0.1"
       id="path57" />
  </g>
  <use
     x="0"
     y="0"
     xlink:href="#path53"
     id="use3085" />
</svg>
